X:1
T:no smoke fanfare
L:1/16
M:4/4
I:linebreak $
K:C
V:1 treble nm="C Trumpet" snm="C Tpt."
V:1
 c'3c'3a3a3 z4 | c'3c'3a2 a3b2 z z2 | c3c3A3A3 z4 | c3c3A2 A3B2 z z2 | d'3d'3c'3e'3 z4 | %5
 d'3d'3c'2 e'3d'3 z2 | z16 |$ z16 | z16 | z16 | z16 | z16 | z16 | z16 | z16 | z16 | z16 | z16 | %18
 z16 | z16 | z16 | z16 | z16 | z16 | z16 | z16 |$ z16 | z16 | z16 | z16 | z16 | z16 |] %32
